X: 50
T:Bielo Litza Kruglolitza
T:Bjelolica kruglolica
O:Russia
F: http://www.youtube.com/watch?v=hBIanEp5nGU
P:ABA
L:1/8
M:4/4
K:Cm
Q:1/4=96
%%MIDI gchord fzzzfzzz
P:A
 z6 [B,2G2]                           |:"Cm"[E2c2] [E2c2] [E2c2] [G2e2]    |\
 "G"[Fd][Ge][Fd][Ec] [D2=B2] [D2G2]   |\
 "Cm"[G2e2] [G2e2] [G2e2] [B2g2]      | "F"[B4f4] "Cm" [Bg][Af][Ge][Fd]    |
 [Ge][Af][Ge][Fd] [E2c2] [B,2G2]      | "G"[Fd][Ge][Fd][Ec] [D2=B2] [B,2G2]|\
 "Cm"[E2c2] [E2c2] "G"[D2=B2] [B,2G2] |\
 "Cm"[E4c4] z2 [B,2G2]                :|
P:B
 c2 cded ec                           | "G"dede "Cm"gfed                   |\
 edef gfge                            | "Fm"f2 ba"Cm"gf ed                 |
 efed cdec                            | "G"dedc "Cm"gfed                   |\
 cedc "Dm"dfdc                        | "Cm"c2 ga gfed                     |



